X:284
T: ES HAT EIN BAUER EIN TOECHTERLEIN
N: E0158
O: Europa, Mitteleuropa, Deutschland
R: erzaehlendes Volks - Lied, Scherz, Schwank, Studenten - Lied
M: 6/4
L: 1/4
K: C
C | C2CC2A, | B,2B,D2
C | B,2A,G,2G, | G,2G,A,2
A, | B,2B,C2C | C2CD2
D | D2DD2D | E2ECED | C2B,C2

